X:1
T:Eklundapolska nr 1
C:Viksta-Lasse
R:Polska
O:Uppland
Z:Erik Ronström 2008-01-31
M:3/4
L:1/16
K:Dm
A2a2 a2^ga baga|A2a2 a2^ga baga|a2ag fefg a2f2|f2ed ^cdec A4|
A2a2 a2^ga baga|A2a2 a2^ga baga|a2ag fefg afed|^cdec d8:|
|:a2ab a2ab a2ab|g2gb g2gb g2gb|f2fa f2fa f2f2|f2ed ^cdec A4:|
|:A2d2 ^cdec d4|A2f2 efge f4|A2d2 ^cdec d4|A2BA G2BG A4|
A2BA G2BG F2AF|E2E2 D8:|

